X:1
T:James Gibb editions
T:The radiant sun, declining - Barnby
%%score [ ( 1 2 ) ( 3 4 ) ]
L:1/8
Q:1/4=92
M:4/4
K:Eb
V:1 treble nm="Midi_74"
V:2 treble 
V:3 bass nm="Midi_74"
V:4 bass 
V:1
"^The radiant sun, declining""^76. 76. D""^Joseph Barnby\n(1838-96)"!mf! B2 | B2!<(! c2 B2 e2!<)! | %2
!>(! e4 d2!>)! || c2 | B2 G2 A2 B2 | G6 || B2 | B2!<(! c2 B2 e2!<)! |!>(! e4 d2!>)! || c2 | %10
 =B2 G=A B2 A2 | G6 ||[M:4/4]!f! G2 | c3 c !courtesy!=d2"^1" =e2 | =e4 f2 || !courtesy!_e2 | %16
 d2 f2 e2 c2 | B6 || A2 | G2 B2 e2 G2 | F4"^rit." c2 || E2 | B2 E2 A2 D2 | E6 || A4 G4 |] %25
V:2
 E2 | D2 C2 F2 E2 | F4 F2 || D2 | E2 E2 E2 D2 | E6 || E2 | A2 A2 A2 A2 | A4 A2 || G2 | %10
 G2 D2 ^F2 F2 | G6 ||[M:4/4] G2 | G3 G G2 G2 | G4 F2 || F2 | F2 D2 C2 E2 | F6 || D2 | E2 E2 E2 E2 | %20
 E4 E2 || C2 | E2 E2 D2 B,2 | B,6 || E4 E4 |] %25
V:3
 B,2 | A,2 A,2 A,2 A,2 | A,4 A,2 || A,2 | B,2 E2 C2 B,2 | B,6 || B,2 | D2 C2 F2 E2 | F4 F2 || E2 | %10
 D2 =B,2 D2 C2 | =B,6 || %12
[M:4/4]"^1 The radiant sun, declining,\nWill soon have pass’d away,\nAnd silver stars outshining\nMake but as transient stay;\nO Light! all light excelling,\nWhen sun or stars decline,\nShine forth, our gloom dispelling\nWith light and joy divine.\n\n2 Like sunbeams, quickly flying\nBefore the dusky night,\nOr stars’ fair lustre, dying\nWith morning’s clearer light,\nSo, swift beyond our measure,\nLife’s little day speeds on;\nA moment’s fleeting pleasure\nAnd light and life are gone.\n" G,2 | %13
 =E3 E F2 C2 | C4 C2 || A,2 | A,2 A,2 A,2 A,2 | A,6 || %18
"^3 Thou, who in human fashion\nDidst render up Thy breath,\nAnd by Thy bitter Passion\nDestroy the sting of death;\nWhen lifes brief day is over\nIts toil, its care and sin\nOpen Thine arms of mercy,\nAnd take the weary in.\n\n4 O Saviour, be Thou near us\nTill all our toil is oer,\nTill heavnly light shall cheer us,\nAnd night return no more.\nSo, to the life immortal,\nWith joy well haste away\nAnd pass thro deaths dark portal\nTo never-ending day." B,2 | %19
 B,2 G,2 A,2 B,2 | C4 F,2 || ^F,2 |"^dim." G,2 G,2 =F,2 A,2 | G,6 || C4 B,4 |] %25
V:4
 G,2 | F,2 E,2 D,2 C,2 | B,,4 B,,2 || A,2 | G,2 E,2 F,2 B,,2 | E,6 || G,2 | F,2 E,2 D,2 C,2 | %8
 =B,,4 B,,2 || C,2 | D,2 D,2 D,2 D,2 | G,6 ||[M:4/4] G,2 | C3 C =B,2 _B,2 | B,4 A,2 || F,2 | %16
 B,,2 B,,2 C,2 C,2 | D,6 || F,2 | E,2 _D,2 C,2 B,,2 | A,,4 A,,2 || =A,,2 | B,,2 B,,2 B,,2 B,,2 | %23
 E,6 || A,,4 E,4 |] %25

